X: 65
T:Regimental March
M:6/8
L:1/8
C:Trad.
R:Marcha
A:Escocia
N:Repertorio básico
K:C
 G |:  E2{c} E {F}EDC | EFG A2G| C2 E {F} EDC | D2"F."G D2 G |  C2 E {F}
 ED
C
 | EFG A2G| C2 E D2 E | C2 "F."G C2  G :|
 c2 G A2G | c2 G A2 G| C2 E {F} EDC | D2"F."G D2 G |  c2 G A2G | c2
G A2 G| C2 E D2 E | C2"F."G C2 G |
 c2 G A2G | c2 G A2 G| C2 E {F} EDC | D2 "F."G D EF| G2 E D2 C | {G}CEG
 A2 G| C2
 E D
2 E | C2"F."G C2 ||

